X:7545
T:Through the World Spinning
O:england
M:C|
A:North-West
R:Reel
K:A
ed|\
c2A2 a4| agfg a4| e2c2 dcBA| G2B2 B2ed| \
c2A2 a4| agfg a4| e2c2 dcBA| E2A2 A2::
ed|\
c2A2 c2e2| d2f2 c2a2| c2A2 dcBA| G2B2 B2ed|\
c2A2 c2e2| d2f2 c2a2| e2c2 dcBA| E2A2 A2:|


